svg/icon/rpx.svg

<svg height="32" viewBox="0 0 32 32" width="32" xmlns="http://www.w3.org/2000/svg" xmlns:xlink="http://www.w3.org/1999/xlink"><defs><linearGradient id="a" x1="50%" x2="50%" y1="0%" y2="100%"><stop offset="0" stop-color="#fff" stop-opacity=".5"/><stop offset="1" stop-opacity=".5"/></linearGradient><circle id="b" cx="16" cy="15" r="15"/><filter id="c" height="111.7%" width="111.7%" x="-5.8%" y="-4.2%"><feOffset dy=".5" in="SourceAlpha" result="shadowOffsetOuter1"/><feGaussianBlur in="shadowOffsetOuter1" result="shadowBlurOuter1" stdDeviation=".5"/><feComposite in="shadowBlurOuter1" in2="SourceAlpha" operator="out" result="shadowBlurOuter1"/><feColorMatrix in="shadowBlurOuter1" values="0 0 0 0 0   0 0 0 0 0   0 0 0 0 0  0 0 0 0.199473505 0"/></filter><path id="d" d="m25.6960784 14.7315373c.720136 0 1.3039216.5709112 1.3039216 1.2751658s-.5837856 1.2751658-1.3039216 1.2751658c-.5504884 0-1.0213015-.3336076-1.2125769-.8053679h-3.7190673l-1.3729187 2.4411661c-.2254739.4009117-.8443166.2821445-.8981311-.1723678l-.3086512-2.6068383-1.1398367 8.4531383c-.0758376.5624185-.9168681.5359625-.9555897-.0300596l-.9349275-13.6665167-.9904381 9.0542638c-.0591237.5404895-.8532385.5675071-.9506274.0323424l-1.0473351-5.7552411-.4842436 1.8942577c-.0534637.2091385-.2456124.3558552-.4660488.3558552h-4.73529414c-.26531327 0-.48039216-.2103357-.48039216-.4697979s.21507889-.4697979.48039216-.4697979h4.36021524l.9384418-3.6709842c.1256568-.4915427.8482323-.4672047.9390096.031628l.8496549 4.6689634 1.2193255-11.14667789c.0624681-.57106314.9177856-.55442822.9569874.01861228l.980927 14.33892651 1.0144636-7.5233593c.0740104-.5488681.888359-.5425623.9534729.0073831l.5818461 4.9142158.7847287-1.3953142c.0844297-.1501232.2457325-.2433935.4209273-.2433935h4.0031093c.1912754-.4717604.6620885-.8053679 1.2125769-.8053679z"/><filter id="e" height="117.5%" width="116.7%" x="-8.3%" y="-6.2%"><feOffset dy=".5" in="SourceAlpha" result="shadowOffsetOuter1"/><feGaussianBlur in="shadowOffsetOuter1" result="shadowBlurOuter1" stdDeviation=".5"/><feColorMatrix in="shadowBlurOuter1" values="0 0 0 0 0   0 0 0 0 0   0 0 0 0 0  0 0 0 0.204257246 0"/></filter></defs><g fill="none" fill-rule="nonzero"><g><use fill="#000" filter="url(#c)" xlink:href="#b"/><use fill="#8d181b" fill-rule="evenodd" xlink:href="#b"/><use fill="url(#a)" fill-rule="evenodd" xlink:href="#b"/><circle cx="16" cy="15" r="14.5" stroke="#000" stroke-opacity=".097"/></g><g><use fill="#000" filter="url(#e)" xlink:href="#d"/><use fill="#fff" fill-rule="evenodd" xlink:href="#d"/></g></g></svg>

<svg xmlns="http://www.w3.org/2000/svg" xmlns:xlink="http://www.w3.org/1999/xlink" width="32" height="32" viewBox="0 0 32 32">
  <defs>
    <linearGradient id="rpx-c" x1="50%" x2="50%" y1="0%" y2="100%">
      <stop offset="0%" stop-color="#FFF" stop-opacity=".5"/>
      <stop offset="100%" stop-opacity=".5"/>
    </linearGradient>
    <circle id="rpx-b" cx="16" cy="15" r="15"/>
    <filter id="rpx-a" width="111.7%" height="111.7%" x="-5.8%" y="-4.2%" filterUnits="objectBoundingBox">
      <feOffset dy=".5" in="SourceAlpha" result="shadowOffsetOuter1"/>
      <feGaussianBlur in="shadowOffsetOuter1" result="shadowBlurOuter1" stdDeviation=".5"/>
      <feComposite in="shadowBlurOuter1" in2="SourceAlpha" operator="out" result="shadowBlurOuter1"/>
      <feColorMatrix in="shadowBlurOuter1" values="0 0 0 0 0   0 0 0 0 0   0 0 0 0 0  0 0 0 0.199473505 0"/>
    </filter>
    <path id="rpx-e" d="M25.6960784,14.7315373 C26.4162144,14.7315373 27,15.3024485 27,16.0067031 C27,16.7109577 26.4162144,17.2818689 25.6960784,17.2818689 C25.14559,17.2818689 24.6747769,16.9482613 24.4835015,16.476501 L20.7644342,16.476501 L19.3915155,18.9176671 C19.1660416,19.3185788 18.5471989,19.1998116 18.4933844,18.7452993 L18.1847332,16.138461 L17.0448965,24.5915993 C16.9690589,25.1540178 16.1280284,25.1275618 16.0893068,24.5615397 L15.1543793,10.895023 L14.1639412,19.9492868 C14.1048175,20.4897763 13.3107027,20.5167939 13.2133138,19.9816292 L12.1659787,14.2263881 L11.6817351,16.1206458 C11.6282714,16.3297843 11.4361227,16.476501 11.2156863,16.476501 L6.48039216,16.476501 C6.21507889,16.476501 6,16.2661653 6,16.0067031 C6,15.7472409 6.21507889,15.5369052 6.48039216,15.5369052 L10.8406074,15.5369052 L11.7790492,11.865921 C11.904706,11.3743783 12.6272815,11.3987163 12.7180588,11.897549 L13.5677137,16.5665124 L14.7870392,5.41983451 C14.8495073,4.84877137 15.7048248,4.86540629 15.7440266,5.43844679 L16.7249536,19.7773733 L17.7394172,12.254014 C17.8134276,11.7051459 18.6277762,11.7114517 18.6928901,12.2613971 L19.2747362,17.1756129 L20.0594649,15.7802987 C20.1438946,15.6301755 20.3051974,15.5369052 20.4803922,15.5369052 L24.4835015,15.5369052 C24.6747769,15.0651448 25.14559,14.7315373 25.6960784,14.7315373 Z"/>
    <filter id="rpx-d" width="116.7%" height="117.5%" x="-8.3%" y="-6.2%" filterUnits="objectBoundingBox">
      <feOffset dy=".5" in="SourceAlpha" result="shadowOffsetOuter1"/>
      <feGaussianBlur in="shadowOffsetOuter1" result="shadowBlurOuter1" stdDeviation=".5"/>
      <feColorMatrix in="shadowBlurOuter1" values="0 0 0 0 0   0 0 0 0 0   0 0 0 0 0  0 0 0 0.204257246 0"/>
    </filter>
  </defs>
  <g fill="none" fill-rule="evenodd">
    <g fill-rule="nonzero">
      <use fill="#000" filter="url(#rpx-a)" xlink:href="#rpx-b"/>
      <use fill="#8D181B" fill-rule="evenodd" xlink:href="#rpx-b"/>
      <use fill="url(#rpx-c)" fill-rule="evenodd" style="mix-blend-mode:soft-light" xlink:href="#rpx-b"/>
      <circle cx="16" cy="15" r="14.5" stroke="#000" stroke-opacity=".097"/>
    </g>
    <g fill-rule="nonzero">
      <use fill="#000" filter="url(#rpx-d)" xlink:href="#rpx-e"/>
      <use fill="#FFF" fill-rule="evenodd" xlink:href="#rpx-e"/>
    </g>
  </g>
</svg>
